img/cashier.svg

<svg fill="none" height="480" viewBox="0 0 1280 480" width="1280" xmlns="http://www.w3.org/2000/svg"><g stroke="#000"><path d="m-.5 277.5h1281v161h-1281z"/><path d="m-.5 257.5h1281v201h-1281z"/><rect height="112" rx="1.5" width="319" x="866.5" y="145.5"/><rect height="66" rx="1.5" width="109" x="1076.5" y=".5"/><rect height="48" rx="1.5" width="93" x="1084.5" y="9.5"/><path d="m1144.5 66.5h79v23h-79z" transform="matrix(0 1 -1 0 1211 -1078)"/><path d="m302.454 134.98c.905.001 1.54.894 1.243 1.749l-35.853 120.634h-162.05l-35.8528-120.634c-.2971-.855.3374-1.748 1.2425-1.749z"/><path d="m78.1802 161.895h217.1808" stroke-linecap="round"/><path d="m87.9009 194.801 197.7401.279" stroke-linecap="round"/><path d="m97.0806 227.986 179.3804.004" stroke-linecap="round"/><path d="m111.5 134.355v123.008"/><path d="m141.938 134.355v123.008"/><path d="m172.376 134.355v123.008"/><path d="m202.815 134.355v123.008"/><path d="m233.253 134.355v123.008"/><path d="m263.691 134.355v123.008"/><path d="m116.798 127.194c-7.569.576-8.227 8.062-5.348 5.923l75.109-68.5272 75.109 68.5272c2.879 2.139 2.221-5.347-5.348-5.923" stroke-linecap="round" stroke-linejoin="round"/><path d="m224.116 98.8535-37.555-34.2637-37.554 34.2637" stroke-linecap="round" stroke-linejoin="round" stroke-width="3"/><path d="m118.856 135.339-5.788-4.502c-.951-.739-2.282-.739-3.232 0l-5.788 4.502" stroke-linecap="round" stroke-linejoin="round" stroke-width="3"/><path d="m269.894 135.339-5.788-4.502c-.951-.739-2.282-.739-3.232 0l-5.788 4.502" stroke-linecap="round" stroke-linejoin="round" stroke-width="3"/></g><path d="m104.045 136.652h-33.7281c-.727 0-1.3174-.589-1.3174-1.316s.5904-1.316 1.3174-1.316h33.7281zm151.041 0h-136.233v-2.632h136.233zm48.342-2.626c.663.068 1.182.629 1.182 1.31s-.519 1.242-1.182 1.31l-.135.006h-33.399v-2.632h33.399z" fill="#000"/></svg>

<svg width="1280" height="480" viewBox="0 0 1280 480" fill="none" xmlns="http://www.w3.org/2000/svg">
<rect x="-0.5" y="277.5" width="1281" height="161" stroke="black"/>
<rect x="-0.5" y="257.5" width="1281" height="201" stroke="black"/>
<rect x="866.5" y="145.5" width="319" height="112" rx="1.5" stroke="black"/>
<rect x="1076.5" y="0.5" width="109" height="66" rx="1.5" stroke="black"/>
<rect x="1084.5" y="9.5" width="93" height="48" rx="1.5" stroke="black"/>
<rect x="1144.5" y="66.5" width="79" height="23" transform="rotate(90 1144.5 66.5)" stroke="black"/>
<path d="M302.454 134.98C303.359 134.981 303.994 135.874 303.697 136.729L267.844 257.363H105.794L69.9412 136.729C69.6441 135.874 70.2786 134.981 71.1837 134.98H302.454Z" stroke="black"/>
<path d="M78.1802 161.895H295.361" stroke="black" stroke-linecap="round"/>
<path d="M87.9009 194.801L285.641 195.08" stroke="black" stroke-linecap="round"/>
<path d="M97.0806 227.986L276.461 227.99" stroke="black" stroke-linecap="round"/>
<line x1="111.5" y1="134.355" x2="111.5" y2="257.363" stroke="black"/>
<line x1="141.938" y1="134.355" x2="141.938" y2="257.363" stroke="black"/>
<line x1="172.376" y1="134.355" x2="172.376" y2="257.363" stroke="black"/>
<line x1="202.815" y1="134.355" x2="202.815" y2="257.363" stroke="black"/>
<line x1="233.253" y1="134.355" x2="233.253" y2="257.363" stroke="black"/>
<line x1="263.691" y1="134.355" x2="263.691" y2="257.363" stroke="black"/>
<path d="M116.798 127.194C109.229 127.77 108.571 135.256 111.45 133.117L186.559 64.5898L261.668 133.117C264.547 135.256 263.889 127.77 256.32 127.194" stroke="black" stroke-linecap="round" stroke-linejoin="round"/>
<path d="M224.116 98.8535L186.561 64.5898L149.007 98.8535" stroke="black" stroke-width="3" stroke-linecap="round" stroke-linejoin="round"/>
<path d="M118.856 135.339L113.068 130.837C112.117 130.098 110.786 130.098 109.836 130.837L104.048 135.339" stroke="black" stroke-width="3" stroke-linecap="round" stroke-linejoin="round"/>
<path d="M269.894 135.339L264.106 130.837C263.155 130.098 261.824 130.098 260.874 130.837L255.086 135.339" stroke="black" stroke-width="3" stroke-linecap="round" stroke-linejoin="round"/>
<path d="M104.045 136.652H70.3169C69.5899 136.652 68.9995 136.063 68.9995 135.336C68.9995 134.609 69.5899 134.02 70.3169 134.02H104.045V136.652ZM255.086 136.652H118.853V134.02H255.086V136.652ZM303.428 134.026C304.091 134.094 304.61 134.655 304.61 135.336C304.61 136.017 304.091 136.578 303.428 136.646L303.293 136.652H269.894V134.02H303.293L303.428 134.026Z" fill="black"/>
</svg>
